X:936
L:1/16
M:2/4
K:A
 E | A/A/A (cA) .G.A.B.c | dcBA GEFG | A/A/A (cA) .B.c.d.f | ecdB cAA{g}a | A/A/A (cA) .G.A.B.c | 
 .d.c.B.A .G.F.E.G | .A.c.E.c .A.B.c.d | eceB cAAg || aAag fddf | bBba geeg | aAag fdaf | 
 ecdB cAAg | a/a/a (ca) fddf | b/b/b (Bb) geeg | .a.g.a.e .f.a.e.a | 
 [ee] [ca] [dg] [Bb] {[cga]}[AA][AA] || [EA]8 ||

